src/assets/Search.svg

<svg fill="none" height="15" viewBox="0 0 16 15" width="16" xmlns="http://www.w3.org/2000/svg"><path clip-rule="evenodd" d="m10.4317 10.9924c-.3534-.3535-.90967-.3821-1.35053-.1464-.77157.4124-1.65297.6462-2.58898.6462-3.03757 0-5.500002-2.46245-5.500002-5.50001 0-3.03757 2.462432-5.500002 5.500002-5.500002 3.03756 0 5.50001 2.462432 5.50001 5.500002 0 .93601-.2338 1.81741-.6462 2.58898-.2357.44086-.2071.9971.1464 1.35057l3.2957 3.29576c.2929.2929.2929.7677 0 1.0606s-.7677.2929-1.0606 0zm.0605-5.00021c0 2.20914-1.79087 4-4.00001 4s-4-1.79086-4-4 1.79086-4 4-4 4.00001 1.79086 4.00001 4z" fill="#798686" fill-rule="evenodd"/></svg>

<svg width="16" height="15" viewBox="0 0 16 15" fill="none" xmlns="http://www.w3.org/2000/svg">
<path fill-rule="evenodd" clip-rule="evenodd" d="M10.4317 10.9924C10.0783 10.6389 9.52203 10.6103 9.08117 10.846C8.3096 11.2584 7.4282 11.4922 6.49219 11.4922C3.45462 11.4922 0.992188 9.02975 0.992188 5.99219C0.992188 2.95462 3.45462 0.492188 6.49219 0.492188C9.52975 0.492188 11.9922 2.95462 11.9922 5.99219C11.9922 6.9282 11.7584 7.8096 11.346 8.58117C11.1103 9.02203 11.1389 9.57827 11.4924 9.93174L14.7881 13.2275C15.081 13.5204 15.081 13.9952 14.7881 14.2881C14.4952 14.581 14.0204 14.581 13.7275 14.2881L10.4317 10.9924ZM10.4922 5.99219C10.4922 8.20133 8.70133 9.99219 6.49219 9.99219C4.28305 9.99219 2.49219 8.20133 2.49219 5.99219C2.49219 3.78305 4.28305 1.99219 6.49219 1.99219C8.70133 1.99219 10.4922 3.78305 10.4922 5.99219Z" fill="#798686"/>
</svg>
